lib/flags/zw-zimbabwe.svg

<svg xmlns="http://www.w3.org/2000/svg" fill="none" aria-hidden="true" viewBox="0 0 42 30"><g id="Country=ZW - Zimbabwe, Size=sm (36x24)" filter="url(#filter0_dd_91_23839)"><g clip-path="url(#clip0_91_23839)"><g id="flag"><mask id="mask0_91_23839" width="36" height="24" x="3" y="2" maskUnits="userSpaceOnUse" style="mask-type:alpha"><rect id="mask" width="36" height="24" x="3" y="2" fill="white"/></mask><g mask="url(#mask0_91_23839)"><g id="contents"><path id="background" fill="#F7FCFF" fill-rule="evenodd" d="M3 2V26H39V2H3Z" clip-rule="evenodd"/><g id="Object"><mask id="mask1_91_23839" width="36" height="24" x="3" y="2" maskUnits="userSpaceOnUse" style="mask-type:alpha"><path id="background_2" fill="white" fill-rule="evenodd" d="M3 2V26H39V2H3Z" clip-rule="evenodd"/></mask><g mask="url(#mask1_91_23839)"><path id="yellow" fill="#FECA00" fill-rule="evenodd" d="M3 4V24H39V4H3Z" clip-rule="evenodd"/><path id="middle" fill="#272727" stroke="#E31D1C" stroke-width="3.5" d="M3 10.25H1.25V12V16V17.75H3H39H40.75V16V12V10.25H39H3Z"/><path id="top n bottom" fill="#5EAA22" fill-rule="evenodd" d="M3 6V2H39V6H3ZM3 26V22H39V26H3Z" clip-rule="evenodd"/></g></g><path id="triangle" fill="#F7FCFF" stroke="#272727" stroke-width="2" d="M3.55166 1.16593L2 0.139642V2V26V27.8348L3.54196 26.8404L21.9147 14.9924L23.2014 14.1626L21.9244 13.3179L3.55166 1.16593Z"/><mask id="mask2_91_23839" width="25" height="32" x="1" y="-2" maskUnits="userSpaceOnUse" style="mask-type:alpha"><path id="triangle_2" fill="white" stroke="white" stroke-width="2" d="M3.55166 1.16593L2 0.139642V2V26V27.8348L3.54196 26.8404L21.9147 14.9924L23.2014 14.1626L21.9244 13.3179L3.55166 1.16593Z"/></mask><g mask="url(#mask2_91_23839)"><g id="mark"><path id="Star 5" fill="#E31D1C" fill-rule="evenodd" d="M11.4132 16.278L7.16191 19.3285L9.11195 15.2519L5.76123 12.3836H9.71629L11.3392 8.9248L13.0629 12.3836H17.0112L13.4835 15.2519L15.249 19.3285L11.4132 16.278Z" clip-rule="evenodd"/><path id="Path 293" fill="#FECA00" fill-rule="evenodd" d="M8.64468 10.4213C8.64468 10.4213 8.58297 10.289 8.94727 10.1721C9.31157 10.0551 9.42269 9.80734 9.70827 9.9897C9.99385 10.1721 10.1725 9.80543 10.2544 10.3313C10.3364 10.8572 10.5622 11.6864 10.5622 11.6864L14.2607 14.157H13.5658C13.5658 14.157 12.4838 15.5702 12.6624 16.8102C12.6624 16.8102 11.9158 16.7092 10.9039 16.7092C9.89193 16.7092 9.22913 16.9248 9.22913 16.9248L8.64468 15.0011C8.64468 15.0011 8.8563 14.6779 8.94727 14.4175C9.03823 14.157 9.4149 14.109 9.4149 13.9018C9.4149 13.6946 9.04337 13.5209 9.22913 12.9845C9.4149 12.4482 9.4149 10.8438 9.4149 10.8438C9.4149 10.8438 8.82779 10.6143 8.94727 10.6143C9.06674 10.6143 9.33908 10.4213 9.14317 10.4213C8.94727 10.4213 8.64468 10.4213 8.64468 10.4213Z" clip-rule="evenodd"/><path id="Path 293_2" stroke="#0A0A0A" stroke-width="0.25" d="M10.5622 11.6864L10.4416 11.7192L10.4539 11.7643L10.4928 11.7903L13.8486 14.032H13.5658H13.5041L13.4666 14.081L13.5658 14.157L13.4665 14.0811L13.4665 14.0812L13.4663 14.0815L13.4655 14.0825L13.4629 14.0859L13.4532 14.0989C13.4449 14.1101 13.433 14.1265 13.4179 14.1477C13.3877 14.19 13.3451 14.2515 13.2947 14.3291C13.194 14.4841 13.0617 14.704 12.9348 14.9638C12.7037 15.4372 12.4827 16.0595 12.5221 16.6678C12.4364 16.6585 12.318 16.6468 12.1727 16.6351C11.857 16.6097 11.4139 16.5842 10.9039 16.5842C10.3891 16.5842 9.96277 16.639 9.66435 16.6941C9.5151 16.7216 9.39772 16.7492 9.31713 16.7701C9.31578 16.7705 9.31443 16.7708 9.3131 16.7712L8.78094 15.0196C8.78241 15.0173 8.78392 15.0148 8.78547 15.0123C8.80738 14.9769 8.83752 14.927 8.8706 14.8686C8.93593 14.7534 9.01602 14.5997 9.06528 14.4587C9.09459 14.3748 9.17135 14.3192 9.28461 14.2436L9.28795 14.2414C9.33737 14.2084 9.39755 14.1682 9.44417 14.1203C9.4949 14.0683 9.5399 13.9968 9.5399 13.9018C9.5399 13.8137 9.50054 13.7388 9.46725 13.6827C9.45306 13.6588 9.43983 13.6379 9.42713 13.6178C9.40505 13.583 9.3846 13.5507 9.36367 13.5097C9.30763 13.4 9.26678 13.2578 9.34725 13.0255C9.39845 12.8776 9.43443 12.6652 9.4607 12.4381C9.48726 12.2086 9.50484 11.9547 9.51653 11.7192C9.52822 11.4835 9.53406 11.2648 9.53698 11.1052C9.53844 11.0253 9.53917 10.9601 9.53953 10.9148L9.53985 10.8624L9.53989 10.8487L9.5399 10.8451L9.5399 10.8442L9.5399 10.8439V10.8438L9.4149 10.8438H9.5399V10.7585L9.46041 10.7274L9.46041 10.7274L9.4604 10.7274L9.46033 10.7274L9.46005 10.7272L9.45886 10.7268L9.45411 10.7249L9.43599 10.7178L9.37191 10.6921C9.32908 10.6747 9.27575 10.6528 9.22263 10.6302C9.22968 10.6249 9.23649 10.6196 9.24301 10.6142C9.26213 10.5985 9.28228 10.5793 9.29875 10.5574C9.3126 10.5389 9.33743 10.5009 9.33701 10.4504C9.33677 10.4219 9.32834 10.3923 9.30969 10.3663C9.29186 10.3414 9.26925 10.326 9.24971 10.3167C9.21358 10.2995 9.17423 10.2963 9.14318 10.2963H9.14203H9.14087H9.13972H9.13856H9.13741H9.13624H9.13508H9.13392H9.13275H9.13158H9.1304H9.12923H9.12805H9.12687H9.12569H9.12451H9.12332H9.12213H9.12095H9.11975H9.11856H9.11736H9.11616H9.11496H9.11376H9.11256H9.11135H9.11014H9.10893H9.10772H9.10651H9.10529H9.10407H9.10285H9.10163H9.10041H9.09919H9.09796H9.09673H9.0955H9.09427H9.09304H9.0918H9.09056H9.08933H9.08808H9.08684H9.0856H9.08436H9.08311H9.08186H9.08061H9.07936H9.07811H9.07685H9.0756H9.07434H9.07308H9.07183H9.07056H9.0693H9.06804H9.06677H9.06551H9.06424H9.06297H9.0617H9.06043H9.05916H9.05789H9.05661H9.05534H9.05406H9.05278H9.0515H9.05022H9.04894H9.04766H9.04637H9.04509H9.04381H9.04252H9.04123H9.03994H9.03866H9.03737H9.03608H9.03478H9.03349H9.0322H9.0309H9.02961H9.02831H9.02702H9.02572H9.02442H9.02312H9.02183H9.02053H9.01923H9.01792H9.01662H9.01532H9.01402H9.01272H9.01141H9.01011H9.0088H9.0075H9.00619H9.00489H9.00358H9.00227H9.00097H8.99966H8.99835H8.99704H8.99573H8.99443H8.99312H8.99181H8.9905H8.98919H8.98788H8.98657H8.98526H8.98395H8.98264H8.98133H8.98002H8.9787H8.97739H8.97608H8.97477H8.97346H8.97215H8.97084H8.96968C8.97482 10.2945 8.98008 10.2928 8.98547 10.2911C9.08726 10.2584 9.17044 10.2168 9.24053 10.1778C9.27109 10.1608 9.29656 10.1459 9.31946 10.1324C9.3534 10.1126 9.3817 10.096 9.41258 10.0808C9.45878 10.058 9.49039 10.0495 9.51881 10.0498C9.546 10.0501 9.5839 10.0586 9.64099 10.0951C9.79738 10.1949 9.95462 10.1716 10.029 10.1606C10.0433 10.1585 10.0545 10.1569 10.062 10.1566C10.0685 10.1564 10.0725 10.1566 10.0748 10.1569C10.0751 10.1572 10.0754 10.1576 10.0757 10.1581C10.0878 10.1737 10.1109 10.2219 10.1309 10.3505C10.1728 10.619 10.2508 10.9621 10.3176 11.2357C10.3512 11.373 10.3821 11.4937 10.4047 11.5802C10.416 11.6234 10.4252 11.6581 10.4316 11.682L10.439 11.7095L10.4409 11.7167L10.4414 11.7186L10.4416 11.719L10.4416 11.7192L10.4416 11.7192L10.5622 11.6864Z"/></g></g></g></g></g></g></g><defs><filter id="filter0_dd_91_23839" width="42" height="30" x="0" y="0" color-interpolation-filters="sRGB" filterUnits="userSpaceOnUse"><feFlood flood-opacity="0" result="BackgroundImageFix"/><feColorMatrix in="SourceAlpha" result="hardAlpha" values="0 0 0 0 0 0 0 0 0 0 0 0 0 0 0 0 0 0 127 0"/><feOffset dy="1"/><feGaussianBlur stdDeviation="1"/><feColorMatrix values="0 0 0 0 0.0627451 0 0 0 0 0.0941176 0 0 0 0 0.156863 0 0 0 0.06 0"/><feBlend in2="BackgroundImageFix" result="effect1_dropShadow_91_23839"/><feColorMatrix in="SourceAlpha" result="hardAlpha" values="0 0 0 0 0 0 0 0 0 0 0 0 0 0 0 0 0 0 127 0"/><feOffset dy="1"/><feGaussianBlur stdDeviation="1.5"/><feColorMatrix values="0 0 0 0 0.0627451 0 0 0 0 0.0941176 0 0 0 0 0.156863 0 0 0 0.1 0"/><feBlend in2="effect1_dropShadow_91_23839" result="effect2_dropShadow_91_23839"/><feBlend in="SourceGraphic" in2="effect2_dropShadow_91_23839" result="shape"/></filter><clipPath id="clip0_91_23839"><rect width="36" height="24" x="3" y="2" fill="white" rx="2"/></clipPath></defs></svg>

<svg xmlns="http://www.w3.org/2000/svg" fill="none" aria-hidden="true" viewBox="0 0 42 30"><g filter="url(#a)"><g clip-path="url(#b)"><mask id="c" width="36" height="24" x="3" y="2" maskUnits="userSpaceOnUse" style="mask-type:alpha"><path fill="#fff" d="M3 2h36v24H3z"/></mask><g mask="url(#c)"><path fill="#F7FCFF" fill-rule="evenodd" d="M3 2v24h36V2H3Z" clip-rule="evenodd"/><mask id="d" width="36" height="24" x="3" y="2" maskUnits="userSpaceOnUse" style="mask-type:alpha"><path fill="#fff" fill-rule="evenodd" d="M3 2v24h36V2H3Z" clip-rule="evenodd"/></mask><g mask="url(#d)"><path fill="#FECA00" fill-rule="evenodd" d="M3 4v20h36V4H3Z" clip-rule="evenodd"/><path fill="#272727" stroke="#E31D1C" stroke-width="3.5" d="M3 10.25H1.25v7.5h39.5v-7.5H3Z"/><path fill="#5EAA22" fill-rule="evenodd" d="M3 6V2h36v4H3Zm0 20v-4h36v4H3Z" clip-rule="evenodd"/></g><path fill="#F7FCFF" stroke="#272727" stroke-width="2" d="M3.552 1.166 2 .14v27.695l1.542-.995 18.373-11.848 1.286-.83-1.277-.844L3.552 1.166Z"/><mask id="e" width="25" height="32" x="1" y="-2" maskUnits="userSpaceOnUse" style="mask-type:alpha"><path fill="#fff" stroke="#fff" stroke-width="2" d="M3.552 1.166 2 .14v27.695l1.542-.995 18.373-11.848 1.286-.83-1.277-.844L3.552 1.166Z"/></mask><g mask="url(#e)"><path fill="#E31D1C" fill-rule="evenodd" d="m11.413 16.278-4.251 3.05 1.95-4.076-3.35-2.868h3.954l1.623-3.46 1.724 3.46h3.948l-3.527 2.868 1.765 4.076-3.836-3.05Z" clip-rule="evenodd"/><path fill="#FECA00" fill-rule="evenodd" d="M8.645 10.421s-.062-.132.302-.249c.365-.117.476-.365.761-.182.286.182.464-.185.546.341.082.526.308 1.355.308 1.355l3.699 2.471h-.695s-1.082 1.413-.904 2.653c0 0-.746-.1-1.758-.1s-1.675.215-1.675.215L8.645 15s.211-.323.302-.583c.091-.261.468-.309.468-.516 0-.207-.372-.381-.186-.917.186-.537.186-2.141.186-2.141s-.587-.23-.468-.23c.12 0 .392-.193.196-.193h-.498Z" clip-rule="evenodd"/><path stroke="#0A0A0A" stroke-width=".25" d="m10.562 11.686-.12.033.012.045.039.026 3.356 2.242h-.345l-.037.049.099.076-.1-.076v.002l-.003.003-.01.013-.035.049a6.075 6.075 0 0 0-.483.816c-.231.473-.452 1.095-.413 1.704a16 16 0 0 0-1.618-.084c-.515 0-.941.055-1.24.11a5.01 5.01 0 0 0-.347.076l-.004.001-.532-1.751.004-.008a2.776 2.776 0 0 0 .28-.553c.03-.084.106-.14.22-.215l.003-.003a.967.967 0 0 0 .156-.12.309.309 0 0 0 .096-.22.432.432 0 0 0-.073-.218l-.04-.065a1.268 1.268 0 0 1-.063-.108c-.056-.11-.097-.252-.017-.485.051-.147.087-.36.114-.587.026-.23.044-.483.056-.719a20.013 20.013 0 0 0 .023-.804v-.071h-.125.125v-.085l-.08-.032-.005-.002-.018-.007-.064-.026a10.07 10.07 0 0 1-.15-.062.34.34 0 0 0 .076-.073.178.178 0 0 0 .039-.107.146.146 0 0 0-.027-.084.155.155 0 0 0-.06-.05.248.248 0 0 0-.107-.02H8.97a1.39 1.39 0 0 0 .27-.119c.031-.016.057-.031.08-.045.033-.02.062-.036.093-.051a.235.235 0 0 1 .106-.031c.027 0 .065.009.122.045a.54.54 0 0 0 .388.066.371.371 0 0 1 .046-.004v.001c.013.016.036.064.056.193.042.268.12.611.187.885a23.263 23.263 0 0 0 .114.446l.007.027.002.008v.002l.121-.033Z"/></g></g></g></g><defs><clipPath id="b"><rect width="36" height="24" x="3" y="2" fill="#fff" rx="2"/></clipPath><filter id="a" width="42" height="30" x="0" y="0" color-interpolation-filters="sRGB" filterUnits="userSpaceOnUse"><feFlood flood-opacity="0" result="BackgroundImageFix"/><feColorMatrix in="SourceAlpha" result="hardAlpha" values="0 0 0 0 0 0 0 0 0 0 0 0 0 0 0 0 0 0 127 0"/><feOffset dy="1"/><feGaussianBlur stdDeviation="1"/><feColorMatrix values="0 0 0 0 0.0627451 0 0 0 0 0.0941176 0 0 0 0 0.156863 0 0 0 0.06 0"/><feBlend in2="BackgroundImageFix" result="effect1_dropShadow_91_23839"/><feColorMatrix in="SourceAlpha" result="hardAlpha" values="0 0 0 0 0 0 0 0 0 0 0 0 0 0 0 0 0 0 127 0"/><feOffset dy="1"/><feGaussianBlur stdDeviation="1.5"/><feColorMatrix values="0 0 0 0 0.0627451 0 0 0 0 0.0941176 0 0 0 0 0.156863 0 0 0 0.1 0"/><feBlend in2="effect1_dropShadow_91_23839" result="effect2_dropShadow_91_23839"/><feBlend in="SourceGraphic" in2="effect2_dropShadow_91_23839" result="shape"/></filter></defs></svg>
